assets/image-user.svg

<svg xmlns="http://www.w3.org/2000/svg" viewBox="0 0 512 512"><path d="M448 32H64C28.654 32 0 60.652 0 96v320c0 35.346 28.654 64 64 64h384c35.348 0 64-28.654 64-64V96c0-35.348-28.652-64-64-64Zm16 384c0 8.822-7.178 16-16 16H64c-8.822 0-16-7.178-16-16V96c0-8.822 7.178-16 16-16h384c8.822 0 16 7.178 16 16v320ZM256.014 256c35.345 0 64-28.656 64-64s-28.655-64-64-64-64 28.656-64 64 28.654 64 64 64Zm32 32h-64c-44.184 0-80 35.816-80 80 0 8.836 7.164 16 16 16h192c8.836 0 16-7.164 16-16 0-44.184-35.817-80-80-80Z"/></svg>

<svg xmlns="http://www.w3.org/2000/svg" viewBox="0 0 512 512"><!-- Font Awesome Pro 6.0.0-alpha2 by @fontawesome - https://fontawesome.com License - https://fontawesome.com/license (Commercial License) --><path d="M448 32H64C28.654 32 0 60.652 0 96V416C0 451.346 28.654 480 64 480H448C483.348 480 512 451.346 512 416V96C512 60.652 483.348 32 448 32ZM464 416C464 424.822 456.822 432 448 432H64C55.178 432 48 424.822 48 416V96C48 87.178 55.178 80 64 80H448C456.822 80 464 87.178 464 96V416ZM256.014 256C291.359 256 320.014 227.344 320.014 192S291.359 128 256.014 128S192.014 156.656 192.014 192S220.668 256 256.014 256ZM288.014 288H224.014C179.83 288 144.014 323.816 144.014 368C144.014 376.836 151.178 384 160.014 384H352.014C360.85 384 368.014 376.836 368.014 368C368.014 323.816 332.197 288 288.014 288Z"/></svg>
